X:1
T:Loving Riley
M:3/2
L:1/4
K:F
 A| G F D3 D| F3/2- G/2 A3 A| G F D3 D| D4 z C| F F F3 A| c c A3 c|\
 d3 c A c| A4 C C| F F F3 A| c2 A2 A- c| d3 c A c| A4 A- c| A3 G D D|\
 F G A3 A| G F D3 D| D3 z2||
